X:1
T:Title
%%score { ( 1 5 ) | ( 2 3 4 ) }
L:1/8
Q:1/4=100
M:4/4
K:Ab
V:1 treble nm="Grand Piano"
V:5 treble 
V:2 bass 
V:3 bass 
V:4 bass 
V:1
 (3[CEc]cc (3[CEc]cc [CEc]2 C>D | [CE]>[_C=D] [=CE]>[_DF] [CE]4 | %2
w: J.~Lincoln~Hall * * * * * * * *||
 [GB]>[_G=A] [=GB]>[_Ac] [Bd]2 [Ac]>[GB] | A>G A>c [GB]4 | [CEc]>[CEc] [CEc]>[CEc] [CEc]2 C>D | %5
w: |||
 z4 [CE]4 | (3eee (3eef e2 c2 | [GB]4 [CEA]4 | (3[CE]EE (3[CE]EE [CE]2 [CEA]>[EGB] | %9
w: ||||
 [EAc]>[=DA_c] [EA=c]>[D_c] [EA=c]4 | (3[DE]EE (3[DE]EE [DE]2 [GB]>[Ac] | %11
w: ||
 [GBd]>[Ac] [GBd]>[Ac] [GBd]4 | [Bd]>[Bd] [Bd]>[Bd] [Bd]2 [Ac]>[GB] | [Ac]>[GB] c>d e4 | %14
w: |||
 (3BBB (3BBB B2 e2 | f4 [Ge]4 | (3[CE]EE (3[CE]EE [CE]2 [CEA]>[EGB] | %17
w: |||
 [EAc]>[=DA_c] [EA=c]>[D_c] [EA=c]4 | (3[DE]EE (3[DE]EE [DE]2 [GB]>[Ac] | z4 [GBd]4 | z4 c4 | %21
w: ||||
 [Ad]>[Ad] [Ad]>[Ad] [A=d]4 | (3[Ae][Ae][Ae] (3[Ae][Ae][Af] [Ae]2 [Ac]2 | [GB]4 [CEA]4 |] %24
w: |||
V:2
 (3z [CE][CE] (3z [CE][CE] [A,,A,]2 [E,,E,]2 | [A,,A,]2 [E,,E,]2 [A,,A,]2 [E,,E,]2 | %2
 [E,E]>[E,E] [E,E]>[E,E] [E,E]2 [E,E]>[E,D] | [A,CE]>[A,B,E] [A,CE]>[A,EA][K:bass] [E,E]4 | %4
 [A,,A,]2 [E,,E,]2 [A,,A,]2 [E,,E,]2 | [A,,A,]2 [E,,E,]2 [A,,A,]2 E,,2 | %6
 (3[A,CA][A,CA][A,CA] (3[A,CA][A,CA][A,DA] [A,CA]2 [A,EA]2 | [E,D]4 [A,,A,]4 | %8
 (3z CC (3z CC [A,,A,]2 [E,,E,]2 | [A,,A,]2 [E,,E,]2 [A,,A,]2 [E,,E,]2 | %10
 (3z DD (3z DD [G,,G,]2 [E,,E,]2 | [G,,G,]2 [E,,E,]2 [G,,G,]2 [E,,E,]2 | %12
 [E,E]>[E,E] [E,E]>[E,E] [E,E]2 [E,E]>[E,E] | [A,E]>[E,E][K:treble] [A,EA]>[B,EA] [CEA]4 | %14
 (3[B,EG][B,EG][B,EG] (3[B,EG][B,EG][B,EG] [B,EG]2 [B,EG]2 | [B,=DA]4[K:bass] [E,E]4 | %16
 (3z CC (3z CC [A,,A,]2 [E,,E,]2 | [A,,A,]2 [E,,E,]2 [A,,A,]2 [E,,E,]2 | %18
 (3z DD (3z DD [G,,G,]2 [E,,E,]2 | [G,,G,]2 [E,,E,]2 [G,,G,]2 E,,2 | %20
 [A,EA]>[A,EA] [A,EA]>[A,EA] [EA]4 | [F,D]>[F,D] [F,D]>[F,D] [=E,_C]4 | %22
 (3[E,C][E,C][E,C] (3[E,C][E,C][E,D] [E,C]2 [E,E]2 | [E,D]4 [A,,A,]4 |] %24
V:3
 A,2 E,2 z4 | x8 | x8 | x4[K:bass] x4 | x8 | x8 | x8 | x8 | A,2 E,2 z4 | x8 | G,2 E,2 z4 | x8 | %12
 x8 | x2[K:treble] x6 | x8 | x4[K:bass] x4 | A,2 E,2 z4 | x8 | G,2 E,2 z4 | x8 | z4 A,2 z2 | x8 | %22
 x8 | x8 |] %24
V:4
 A,,2 E,,2 z4 | x8 | x8 | x4[K:bass] x4 | x8 | x8 | x8 | x8 | A,,2 E,,2 z4 | x8 | G,,2 E,,2 z4 | %11
 x8 | x8 | x2[K:treble] x6 | x8 | x4[K:bass] x4 | A,,2 E,,2 z4 | x8 | G,,2 E,,2 z4 | x8 | x8 | x8 | %22
 x8 | x8 |] %24
V:5
 x8 | x8 | x8 | x8 | x8 | [CE]>[_C=D] [=CE]>[_DF] z2 E,2 | x8 | x8 | x8 | x8 | x8 | x8 | x8 | x8 | %14
 x8 | x8 | x8 | x8 | x8 | [GBd]>[Ac] [GBd]>[Ac] z2 E,2 | c>c c>c z2 _G,2 | x8 | x8 | x8 |] %24

